flaticon/gastronomy/cheese-1.svg

<svg xmlns="http://www.w3.org/2000/svg" width="32" height="32" viewBox="0 0 24 24">
    <path d="M12.40625 13.835938C12.363281 13.722656 12.308594 13.609375 12.253906 13.503906 12.21875 13.433594 12.175781 13.367188 12.132812 13.300781 12.101562 13.253906 12.074219 13.203125 12.039062 13.160156 11.992188 13.089844 11.941406 13.023438 11.886719 12.957031 11.855469 12.917969 11.824219 12.882812 11.792969 12.847656 11.691406 12.734375 11.582031 12.628906 11.464844 12.53125 11.425781 12.496094 11.382812 12.457031 11.339844 12.425781 11.285156 12.382812 11.230469 12.347656 11.171875 12.308594 11.105469 12.265625 11.039062 12.222656 10.96875 12.183594 10.921875 12.15625 10.875 12.132812 10.824219 12.105469 10.703125 12.046875 10.574219 11.992188 10.445312 11.953125 10.339844 11.921875 10.234375 11.898438 10.132812 11.878906 10.109375 11.875 10.089844 11.875 10.066406 11.871094 9.855469 11.839844 9.644531 11.84375 9.449219 11.878906 9.445312 11.878906 9.4375 11.878906 9.433594 11.878906 9.175781 11.925781 8.933594 12.023438 8.726562 12.175781 8.707031 12.191406 8.691406 12.210938 8.671875 12.226562 8.617188 12.273438 8.566406 12.324219 8.515625 12.375 8.480469 12.414062 8.445312 12.445312 8.414062 12.484375 8.347656 12.570312 8.292969 12.660156 8.242188 12.757812 8.242188 12.757812 8.242188 12.761719 8.242188 12.761719 8.109375 13.019531 8.039062 13.316406 8.039062 13.640625 8.039062 14.851562 8.980469 16.089844 10.183594 16.460938 10.410156 16.53125 10.632812 16.566406 10.851562 16.566406 11.242188 16.566406 11.605469 16.457031 11.902344 16.238281 12.34375 15.910156 12.589844 15.390625 12.589844 14.773438 12.589844 14.457031 12.523438 14.140625 12.40625 13.835938zM9.167969 12.984375C9.210938 12.941406 9.261719 12.902344 9.3125 12.871094 9.34375 12.851562 9.375 12.835938 9.410156 12.824219 9.453125 12.804688 9.5 12.785156 9.550781 12.773438 9.589844 12.765625 9.628906 12.761719 9.667969 12.757812 9.726562 12.75 9.785156 12.746094 9.847656 12.75 9.863281 12.75 9.878906 12.75 9.898438 12.753906 9.988281 12.761719 10.082031 12.777344 10.183594 12.808594 10.273438 12.835938 10.363281 12.875 10.453125 12.921875 10.472656 12.929688 10.488281 12.9375 10.507812 12.949219 10.6875 13.046875 10.855469 13.171875 11.007812 13.316406 11.015625 13.324219 11.023438 13.332031 11.03125 13.339844 11.175781 13.484375 11.300781 13.648438 11.40625 13.824219 11.421875 13.851562 11.4375 13.875 11.449219 13.902344 11.460938 13.921875 11.464844 13.9375 11.476562 13.957031 11.253906 14.207031 10.878906 14.277344 10.445312 14.148438 9.914062 13.980469 9.421875 13.542969 9.148438 13.003906 9.15625 12.996094 9.164062 12.992188 9.167969 12.984375zM11.371094 15.519531C11.140625 15.6875 10.8125 15.71875 10.445312 15.605469 9.875 15.429688 9.371094 14.9375 9.117188 14.382812 9.433594 14.664062 9.796875 14.882812 10.183594 15 10.40625 15.070312 10.632812 15.105469 10.847656 15.105469 11.148438 15.105469 11.433594 15.035156 11.679688 14.90625 11.652344 15.171875 11.550781 15.386719 11.371094 15.519531zM18.558594 15.148438C18.074219 14.996094 17.59375 15.0625 17.238281 15.324219 16.894531 15.574219 16.699219 15.988281 16.699219 16.457031 16.699219 17.359375 17.402344 18.285156 18.296875 18.5625 18.46875 18.613281 18.640625 18.640625 18.804688 18.640625 19.105469 18.640625 19.390625 18.554688 19.617188 18.382812 19.960938 18.132812 20.152344 17.71875 20.152344 17.25 20.152344 16.347656 19.453125 15.425781 18.558594 15.148438zM19.085938 17.664062C18.960938 17.757812 18.773438 17.773438 18.558594 17.707031 18.035156 17.542969 17.597656 16.972656 17.597656 16.457031 17.597656 16.328125 17.625 16.152344 17.769531 16.046875 17.84375 15.992188 17.9375 15.960938 18.046875 15.960938 18.125 15.960938 18.207031 15.976562 18.296875 16.003906 18.816406 16.164062 19.257812 16.734375 19.257812 17.25 19.257812 17.382812 19.230469 17.558594 19.085938 17.664062zM6.023438 14.253906C5.539062 14.101562 5.058594 14.167969 4.703125 14.429688 4.359375 14.679688 4.164062 15.09375 4.164062 15.5625 4.164062 16.464844 4.867188 17.390625 5.757812 17.664062 5.933594 17.71875 6.105469 17.746094 6.269531 17.746094 6.570312 17.746094 6.851562 17.660156 7.082031 17.488281 7.421875 17.238281 7.617188 16.824219 7.617188 16.355469 7.617188 15.453125 6.917969 14.527344 6.023438 14.253906zM6.550781 16.769531C6.425781 16.863281 6.238281 16.875 6.023438 16.808594 5.5 16.648438 5.058594 16.078125 5.058594 15.5625 5.058594 15.433594 5.089844 15.253906 5.230469 15.148438 5.308594 15.09375 5.402344 15.066406 5.511719 15.066406 5.589844 15.066406 5.671875 15.082031 5.757812 15.109375 6.28125 15.269531 6.722656 15.839844 6.722656 16.355469 6.722656 16.484375 6.691406 16.664062 6.550781 16.769531zM15.425781 18.253906C15.0625 18.140625 14.699219 18.191406 14.425781 18.390625 14.164062 18.585938 14.015625 18.898438 14.015625 19.253906 14.015625 19.90625 14.519531 20.570312 15.160156 20.769531 15.289062 20.8125 15.414062 20.832031 15.539062 20.832031 15.769531 20.832031 15.984375 20.761719 16.160156 20.632812 16.421875 20.441406 16.574219 20.125 16.574219 19.769531 16.570312 19.117188 16.070312 18.453125 15.425781 18.253906zM15.628906 19.910156C15.589844 19.941406 15.511719 19.941406 15.425781 19.914062 15.15625 19.832031 14.910156 19.515625 14.910156 19.253906 14.910156 19.222656 14.914062 19.144531 14.957031 19.113281 14.976562 19.097656 15.007812 19.089844 15.046875 19.089844 15.082031 19.089844 15.121094 19.097656 15.160156 19.109375 15.429688 19.191406 15.675781 19.507812 15.675781 19.769531 15.675781 19.800781 15.671875 19.878906 15.628906 19.910156zM14.839844 15.449219C14.96875 15.488281 15.097656 15.507812 15.21875 15.507812 15.449219 15.507812 15.664062 15.441406 15.839844 15.308594 16.101562 15.117188 16.253906 14.800781 16.253906 14.445312 16.253906 13.796875 15.75 13.128906 15.105469 12.929688 14.742188 12.816406 14.378906 12.867188 14.109375 13.070312 13.847656 13.261719 13.695312 13.578125 13.695312 13.933594 13.695312 14.582031 14.199219 15.25 14.839844 15.449219zM14.640625 13.789062C14.660156 13.773438 14.691406 13.765625 14.726562 13.765625 14.761719 13.765625 14.800781 13.773438 14.839844 13.785156 15.113281 13.871094 15.359375 14.183594 15.359375 14.445312 15.359375 14.480469 15.351562 14.558594 15.308594 14.589844 15.269531 14.617188 15.191406 14.617188 15.105469 14.59375 14.835938 14.507812 14.589844 14.195312 14.589844 13.933594 14.589844 13.898438 14.59375 13.820312 14.640625 13.789062zM5.058594 9.746094C5.058594 9.046875 4.519531 8.335938 3.832031 8.121094 3.445312 8 3.058594 8.054688 2.773438 8.265625 2.496094 8.46875 2.339844 8.800781 2.339844 9.179688 2.339844 9.875 2.878906 10.589844 3.566406 10.804688 3.703125 10.84375 3.835938 10.867188 3.96875 10.867188 4.210938 10.867188 4.4375 10.796875 4.625 10.65625 4.902344 10.453125 5.058594 10.121094 5.058594 9.746094zM4.09375 9.9375C4.039062 9.976562 3.941406 9.980469 3.832031 9.949219 3.511719 9.847656 3.234375 9.492188 3.234375 9.179688 3.234375 9.125 3.242188 9.03125 3.304688 8.988281 3.335938 8.964844 3.378906 8.953125 3.429688 8.953125 3.46875 8.953125 3.515625 8.960938 3.566406 8.976562 3.886719 9.074219 4.164062 9.433594 4.164062 9.746094 4.164062 9.796875 4.15625 9.890625 4.09375 9.9375zM4.09375 9.9375"/>
    <path d="M 22.085938 15.835938 C 22.09375 15.804688 22.105469 15.777344 22.117188 15.75 C 22.128906 15.722656 22.136719 15.691406 22.148438 15.667969 C 22.148438 15.664062 22.152344 15.664062 22.152344 15.660156 C 22.175781 15.617188 22.207031 15.574219 22.242188 15.539062 C 22.285156 15.488281 22.339844 15.449219 22.402344 15.421875 C 22.414062 15.414062 22.425781 15.410156 22.4375 15.402344 C 22.496094 15.378906 22.5625 15.363281 22.628906 15.355469 C 22.636719 15.355469 22.648438 15.351562 22.65625 15.351562 C 22.714844 15.347656 22.773438 15.347656 22.835938 15.355469 C 22.84375 15.359375 22.851562 15.355469 22.859375 15.359375 C 22.863281 15.359375 22.867188 15.359375 22.875 15.363281 C 22.929688 15.371094 22.984375 15.382812 23.046875 15.402344 C 23.082031 15.414062 23.121094 15.433594 23.160156 15.449219 C 23.183594 15.457031 23.207031 15.464844 23.230469 15.476562 C 23.257812 15.488281 23.285156 15.496094 23.308594 15.5 C 23.320312 15.503906 23.328125 15.507812 23.339844 15.507812 C 23.371094 15.515625 23.402344 15.515625 23.4375 15.515625 C 23.441406 15.515625 23.445312 15.515625 23.449219 15.515625 C 23.484375 15.511719 23.519531 15.503906 23.550781 15.496094 C 23.554688 15.496094 23.554688 15.496094 23.558594 15.492188 C 23.578125 15.488281 23.597656 15.476562 23.621094 15.464844 C 23.632812 15.457031 23.648438 15.453125 23.660156 15.445312 C 23.75 15.386719 23.8125 15.296875 23.84375 15.195312 C 23.855469 15.15625 23.863281 15.113281 23.863281 15.070312 L 23.863281 14.070312 C 23.863281 13.105469 23.410156 12.179688 22.652344 11.585938 L 14.875 4.226562 C 14.710938 4.070312 14.457031 4.0625 14.28125 4.207031 C 14.140625 4.320312 13.933594 4.347656 13.695312 4.273438 C 13.140625 4.101562 12.671875 3.492188 12.671875 2.941406 C 12.671875 2.828125 12.691406 2.730469 12.734375 2.644531 C 12.824219 2.46875 12.789062 2.253906 12.644531 2.117188 L 11.308594 0.855469 C 11.296875 0.84375 11.285156 0.835938 11.273438 0.824219 C 10.230469 0.03125 8.953125 -0.21875 8 0.199219 L 1.378906 3.394531 C 0.625 3.71875 0.136719 4.484375 0.136719 5.34375 L 0.136719 12.398438 C 0.136719 12.53125 0.195312 12.660156 0.296875 12.742188 C 0.398438 12.828125 0.53125 12.863281 0.664062 12.839844 C 0.8125 12.8125 0.972656 12.824219 1.136719 12.875 C 1.808594 13.082031 2.375 13.820312 2.375 14.484375 C 2.375 14.738281 2.285156 14.945312 2.125 15.0625 C 1.945312 15.195312 1.691406 15.21875 1.398438 15.128906 C 1.222656 15.074219 1.042969 14.972656 0.863281 14.832031 C 0.730469 14.722656 0.546875 14.703125 0.390625 14.777344 C 0.234375 14.851562 0.136719 15.007812 0.136719 15.179688 L 0.136719 16.148438 C 0.136719 17.109375 0.789062 17.945312 1.703125 18.175781 L 21.261719 23.9375 C 21.433594 23.980469 21.605469 24 21.773438 24 C 22.234375 24 22.683594 23.847656 23.058594 23.554688 C 23.570312 23.15625 23.863281 22.554688 23.863281 21.90625 L 23.863281 18.171875 C 23.863281 18.058594 23.824219 17.957031 23.757812 17.878906 C 23.691406 17.800781 23.597656 17.746094 23.488281 17.726562 C 23.476562 17.726562 23.46875 17.722656 23.460938 17.722656 C 23.0625 17.648438 22.671875 17.367188 22.402344 17.003906 C 22.273438 16.828125 22.179688 16.632812 22.121094 16.433594 C 22.105469 16.375 22.089844 16.320312 22.078125 16.265625 C 22.066406 16.183594 22.0625 16.105469 22.0625 16.03125 C 22.0625 15.996094 22.070312 15.960938 22.074219 15.925781 C 22.078125 15.894531 22.078125 15.863281 22.085938 15.835938 Z M 1.75 4.207031 L 8.375 1.011719 C 9.015625 0.734375 9.929688 0.933594 10.710938 1.523438 L 11.820312 2.570312 C 11.789062 2.6875 11.777344 2.8125 11.777344 2.941406 C 11.777344 3.878906 12.503906 4.839844 13.433594 5.128906 C 13.808594 5.242188 14.183594 5.234375 14.5 5.105469 L 21.625 11.847656 L 13.921875 9.550781 C 13.726562 8.789062 13.105469 8.09375 12.339844 7.859375 C 11.835938 7.703125 11.339844 7.769531 10.96875 8.039062 C 10.789062 8.171875 10.648438 8.347656 10.554688 8.550781 L 1.535156 5.867188 C 1.257812 5.8125 1.097656 5.621094 1.058594 5.296875 C 1.054688 5.277344 1.042969 5.257812 1.039062 5.238281 C 1.074219 4.78125 1.339844 4.386719 1.75 4.207031 Z M 13.097656 10.042969 C 13.097656 10.183594 13.066406 10.378906 12.910156 10.492188 C 12.773438 10.59375 12.570312 10.609375 12.339844 10.539062 C 12.269531 10.519531 12.199219 10.488281 12.132812 10.457031 C 11.738281 10.25 11.417969 9.835938 11.335938 9.417969 C 11.320312 9.351562 11.3125 9.28125 11.3125 9.214844 C 11.316406 9.207031 11.320312 9.15625 11.320312 9.148438 C 11.324219 9.136719 11.320312 9.125 11.320312 9.117188 C 11.332031 8.992188 11.378906 8.851562 11.5 8.761719 C 11.582031 8.699219 11.6875 8.667969 11.808594 8.667969 C 11.890625 8.667969 11.980469 8.683594 12.074219 8.710938 C 12.59375 8.875 13.03125 9.414062 13.089844 9.933594 C 13.089844 9.9375 13.089844 9.941406 13.089844 9.945312 Z M 22.96875 21.90625 C 22.96875 22.277344 22.800781 22.621094 22.507812 22.847656 C 22.214844 23.078125 21.839844 23.15625 21.496094 23.074219 L 1.9375 17.3125 C 1.40625 17.179688 1.03125 16.699219 1.03125 16.148438 L 1.03125 15.949219 C 1.066406 15.960938 1.101562 15.972656 1.136719 15.984375 C 1.695312 16.15625 2.25 16.085938 2.65625 15.785156 C 3.050781 15.492188 3.269531 15.03125 3.269531 14.484375 C 3.269531 13.425781 2.449219 12.34375 1.398438 12.019531 C 1.277344 11.980469 1.152344 11.953125 1.03125 11.941406 L 1.03125 6.644531 C 1.121094 6.683594 1.21875 6.714844 1.324219 6.734375 L 10.429688 9.449219 C 10.433594 9.46875 10.441406 9.488281 10.445312 9.511719 C 10.453125 9.558594 10.464844 9.605469 10.472656 9.652344 C 10.488281 9.714844 10.507812 9.78125 10.527344 9.84375 C 10.542969 9.890625 10.5625 9.9375 10.582031 9.984375 C 10.605469 10.042969 10.632812 10.105469 10.660156 10.164062 C 10.683594 10.210938 10.710938 10.253906 10.734375 10.300781 C 10.769531 10.355469 10.804688 10.410156 10.84375 10.464844 C 10.875 10.507812 10.902344 10.550781 10.9375 10.589844 C 10.976562 10.644531 11.023438 10.691406 11.066406 10.742188 C 11.101562 10.78125 11.136719 10.816406 11.175781 10.855469 C 11.226562 10.902344 11.28125 10.945312 11.332031 10.988281 C 11.371094 11.019531 11.410156 11.050781 11.449219 11.078125 C 11.511719 11.125 11.578125 11.160156 11.640625 11.199219 C 11.679688 11.21875 11.710938 11.242188 11.75 11.261719 C 11.855469 11.316406 11.960938 11.359375 12.074219 11.394531 C 12.1875 11.429688 12.296875 11.449219 12.410156 11.460938 C 12.4375 11.464844 12.46875 11.46875 12.496094 11.46875 C 12.53125 11.472656 12.566406 11.476562 12.601562 11.476562 C 12.664062 11.476562 12.722656 11.472656 12.78125 11.464844 C 12.792969 11.464844 12.804688 11.464844 12.816406 11.460938 C 12.917969 11.449219 13.015625 11.421875 13.109375 11.386719 C 13.132812 11.378906 13.15625 11.367188 13.175781 11.359375 C 13.269531 11.320312 13.359375 11.273438 13.441406 11.214844 C 13.519531 11.15625 13.589844 11.085938 13.652344 11.011719 C 13.667969 10.996094 13.683594 10.972656 13.699219 10.953125 C 13.753906 10.882812 13.800781 10.808594 13.84375 10.730469 C 13.84375 10.722656 13.851562 10.714844 13.855469 10.707031 C 13.886719 10.640625 13.914062 10.566406 13.9375 10.488281 L 22.023438 12.898438 C 22.570312 13.015625 22.96875 13.507812 22.96875 14.070312 L 22.96875 14.46875 C 22.832031 14.449219 22.695312 14.449219 22.566406 14.460938 C 22.457031 14.46875 22.351562 14.492188 22.25 14.523438 C 22.214844 14.53125 22.179688 14.546875 22.144531 14.558594 C 22.074219 14.585938 22.007812 14.617188 21.941406 14.652344 C 21.910156 14.671875 21.878906 14.691406 21.847656 14.710938 C 21.78125 14.753906 21.714844 14.808594 21.65625 14.863281 C 21.640625 14.878906 21.621094 14.886719 21.609375 14.902344 C 21.601562 14.90625 21.601562 14.914062 21.59375 14.917969 C 21.585938 14.929688 21.578125 14.933594 21.570312 14.941406 C 21.570312 14.945312 21.570312 14.945312 21.570312 14.945312 C 21.527344 14.992188 21.496094 15.050781 21.460938 15.101562 C 21.429688 15.144531 21.394531 15.183594 21.371094 15.230469 C 21.367188 15.238281 21.359375 15.246094 21.355469 15.25 C 21.320312 15.320312 21.296875 15.398438 21.273438 15.472656 C 21.257812 15.511719 21.238281 15.546875 21.230469 15.585938 C 21.203125 15.683594 21.191406 15.789062 21.183594 15.894531 C 21.179688 15.925781 21.171875 15.953125 21.167969 15.984375 C 21.167969 15.988281 21.167969 15.992188 21.167969 15.996094 C 21.164062 16.113281 21.175781 16.234375 21.191406 16.355469 C 21.195312 16.371094 21.191406 16.390625 21.195312 16.40625 C 21.21875 16.535156 21.25 16.660156 21.292969 16.785156 C 21.296875 16.792969 21.296875 16.800781 21.300781 16.8125 C 21.3125 16.855469 21.332031 16.898438 21.367188 16.96875 C 21.390625 17.023438 21.410156 17.078125 21.4375 17.128906 C 21.449219 17.152344 21.457031 17.171875 21.464844 17.191406 C 21.492188 17.238281 21.523438 17.285156 21.550781 17.328125 C 21.578125 17.371094 21.601562 17.410156 21.628906 17.453125 C 21.648438 17.484375 21.664062 17.511719 21.683594 17.535156 C 21.757812 17.636719 21.839844 17.730469 21.90625 17.800781 C 21.914062 17.8125 21.9375 17.835938 21.945312 17.847656 C 21.976562 17.878906 22.011719 17.90625 22.042969 17.9375 C 22.058594 17.949219 22.074219 17.964844 22.085938 17.976562 C 22.164062 18.046875 22.238281 18.109375 22.320312 18.164062 C 22.332031 18.175781 22.347656 18.1875 22.363281 18.199219 C 22.445312 18.257812 22.53125 18.308594 22.621094 18.355469 C 22.632812 18.363281 22.644531 18.371094 22.660156 18.378906 C 22.761719 18.429688 22.863281 18.480469 22.96875 18.515625 Z M 22.96875 21.90625"/>
</svg>

<svg xmlns="http://www.w3.org/2000/svg" width="32" height="32" viewBox="0 0 24 24">
    <path d="M12.406 13.836a3.2 3.2 0 0 0-.152-.332c-.035-.07-.078-.137-.121-.203-.031-.047-.059-.098-.094-.14a2.502 2.502 0 0 0-.246-.313 3.14 3.14 0 0 0-.328-.317c-.04-.035-.082-.074-.125-.105-.055-.043-.11-.078-.168-.117a3.529 3.529 0 0 0-.203-.125c-.047-.028-.094-.051-.145-.079a2.647 2.647 0 0 0-.379-.152 3.277 3.277 0 0 0-.312-.074c-.024-.004-.043-.004-.067-.008a1.919 1.919 0 0 0-.617.008h-.015c-.258.047-.5.144-.707.297-.02.015-.036.035-.055.05a2.805 2.805 0 0 0-.156.149c-.036.04-.07.07-.102.11a1.79 1.79 0 0 0-.172.273v.004a1.905 1.905 0 0 0-.203.879c0 1.21.941 2.449 2.145 2.82.226.07.449.105.668.105.39 0 .753-.109 1.05-.328.442-.328.688-.847.688-1.465 0-.316-.067-.632-.184-.937zm-3.238-.852a.803.803 0 0 1 .145-.113.45.45 0 0 1 .097-.047c.043-.02.09-.039.14-.05.04-.008.079-.012.118-.016.059-.008.117-.012.18-.008a1.352 1.352 0 0 1 .605.172 2.387 2.387 0 0 1 .555.395l.023.023c.145.144.27.308.375.484.016.028.031.051.043.078.012.02.016.036.028.055-.223.25-.598.32-1.032.191-.53-.168-1.023-.605-1.297-1.144.008-.008.016-.012.02-.02zm2.203 2.536c-.23.168-.559.199-.926.085-.57-.175-1.074-.668-1.328-1.222.317.281.68.5 1.067.617.222.07.449.105.664.105.3 0 .586-.07.832-.199-.028.266-.13.48-.309.614zm0 0M18.559 15.148c-.485-.152-.965-.085-1.32.176-.344.25-.54.664-.54 1.133 0 .902.703 1.828 1.598 2.105.172.051.344.079.508.079.3 0 .586-.086.812-.258.344-.25.535-.664.535-1.133 0-.902-.699-1.824-1.593-2.102zm.527 2.516c-.125.094-.313.11-.527.043-.524-.164-.961-.734-.961-1.25 0-.129.027-.305.172-.41a.46.46 0 0 1 .277-.086c.078 0 .16.016.25.043.52.16.96.73.96 1.246 0 .133-.027.309-.171.414zm0 0M6.023 14.254c-.484-.152-.964-.086-1.32.176-.344.25-.539.664-.539 1.133 0 .902.703 1.828 1.594 2.101.176.055.347.082.512.082.3 0 .582-.086.812-.258.34-.25.535-.664.535-1.133 0-.902-.699-1.828-1.594-2.101zm.528 2.516c-.125.093-.313.105-.528.039-.523-.16-.964-.73-.964-1.247 0-.128.03-.308.171-.414a.478.478 0 0 1 .282-.082c.078 0 .16.016.246.043.523.16.965.73.965 1.246 0 .13-.032.31-.172.415zm0 0M15.426 18.254c-.364-.113-.727-.063-1 .137-.262.195-.41.507-.41.863 0 .652.504 1.316 1.144 1.516.13.043.254.062.38.062.23 0 .444-.07.62-.2.262-.19.414-.507.414-.862-.004-.653-.504-1.317-1.148-1.516zm.203 1.656c-.04.031-.117.031-.203.004-.27-.082-.516-.398-.516-.66 0-.031.004-.11.047-.14.02-.016.05-.024.09-.024.035 0 .074.008.113.02.27.081.516.398.516.66 0 .03-.004.109-.047.14zm0 0M14.84 15.45c.129.038.258.058.379.058.23 0 .445-.067.62-.2.263-.19.415-.507.415-.863 0-.648-.504-1.316-1.149-1.515-.363-.114-.726-.063-.996.14a1.052 1.052 0 0 0-.414.864c0 .648.504 1.316 1.145 1.515zm-.2-1.66a.14.14 0 0 1 .087-.024c.035 0 .074.007.113.02.273.085.52.398.52.66 0 .034-.008.113-.051.144-.04.027-.118.027-.204.004-.27-.086-.515-.399-.515-.66 0-.036.004-.114.05-.145zm0 0M5.059 9.746c0-.7-.54-1.41-1.227-1.625-.387-.121-.773-.066-1.059.145-.277.203-.433.535-.433.914 0 .695.539 1.41 1.226 1.625.137.039.27.062.403.062.242 0 .469-.07.656-.21.277-.204.434-.536.434-.91zm-.965.191c-.055.04-.153.043-.262.012-.32-.101-.598-.457-.598-.77 0-.054.008-.148.07-.19a.206.206 0 0 1 .126-.036c.039 0 .086.008.136.024.32.097.598.457.598.77 0 .05-.008.144-.07.19zm0 0"/>
    <path d="M22.086 15.836a.557.557 0 0 1 .031-.086c.012-.027.02-.059.031-.082 0-.004.004-.004.004-.008a.541.541 0 0 1 .09-.12.437.437 0 0 1 .16-.118c.012-.008.024-.012.035-.02a.763.763 0 0 1 .192-.047l.027-.003a.928.928 0 0 1 .18.003c.008.004.016 0 .023.004a1.068 1.068 0 0 1 .188.043c.035.012.074.032.113.047a.522.522 0 0 1 .07.028c.028.011.055.02.079.023.011.004.02.008.03.008a.396.396 0 0 0 .099.008h.011a.78.78 0 0 0 .102-.02c.004 0 .004 0 .008-.004.02-.004.039-.015.062-.027.012-.008.027-.012.04-.02a.455.455 0 0 0 .202-.375v-1c0-.965-.453-1.89-1.21-2.484l-7.778-7.36a.447.447 0 0 0-.594-.019c-.14.113-.347.14-.586.066-.554-.171-1.023-.78-1.023-1.332 0-.113.02-.21.062-.296a.446.446 0 0 0-.09-.528L11.31.855l-.036-.03C10.23.03 8.953-.22 8 .198L1.379 3.395C.625 3.719.137 4.485.137 5.344v7.054c0 .133.058.262.16.344a.444.444 0 0 0 .367.098.989.989 0 0 1 .473.035c.672.207 1.238.945 1.238 1.61 0 .253-.09.46-.25.578-.18.132-.434.156-.727.066a1.713 1.713 0 0 1-.535-.297.442.442 0 0 0-.472-.055.444.444 0 0 0-.254.403v.968c0 .961.652 1.797 1.566 2.028l19.559 5.762a2.08 2.08 0 0 0 1.797-.383c.511-.399.804-1 .804-1.649v-3.734a.448.448 0 0 0-.375-.445c-.011 0-.02-.004-.027-.004-.398-.075-.79-.356-1.059-.72a1.85 1.85 0 0 1-.28-.57c-.017-.058-.032-.113-.044-.167a1.647 1.647 0 0 1-.015-.235c0-.035.007-.07.011-.105.004-.031.004-.063.012-.09zM1.75 4.207l6.625-3.195c.64-.278 1.555-.078 2.336.511l1.11 1.047a1.442 1.442 0 0 0-.044.371c0 .938.727 1.899 1.657 2.188.375.113.75.105 1.066-.024l7.125 6.743-7.703-2.297c-.195-.762-.817-1.457-1.582-1.692-.504-.156-1-.09-1.371.18-.18.133-.32.309-.414.512l-9.02-2.684c-.277-.054-.437-.246-.476-.57-.004-.02-.016-.04-.02-.059.035-.457.3-.851.711-1.031zm11.348 5.836c0 .14-.032.336-.188.45-.137.1-.34.116-.57.046-.07-.02-.14-.05-.207-.082-.395-.207-.715-.621-.797-1.039a.9.9 0 0 1-.024-.203.385.385 0 0 0 .008-.067c.004-.011 0-.023 0-.03a.487.487 0 0 1 .18-.356.5.5 0 0 1 .309-.094c.082 0 .171.016.265.043.52.164.957.703 1.016 1.223v.011zm9.87 11.863c0 .371-.167.715-.46.942-.293.23-.668.308-1.012.226L1.938 17.312a1.2 1.2 0 0 1-.907-1.164v-.199l.106.035c.558.172 1.113.102 1.52-.199.394-.293.613-.754.613-1.3 0-1.06-.82-2.141-1.872-2.465a1.761 1.761 0 0 0-.367-.079V6.645c.09.039.188.07.293.09l9.106 2.714c.004.02.011.04.015.063.008.047.02.093.028.14.015.063.035.13.054.192.016.047.036.094.055.14.023.059.05.121.078.18.024.047.05.09.074.137.036.054.07.11.11.164.031.043.058.086.094.125.039.055.085.101.128.152.036.04.07.074.11.113.05.047.105.09.156.133.04.032.078.063.117.09.063.047.13.082.192.121.039.02.07.043.109.063.105.054.21.097.324.133a1.704 1.704 0 0 0 .422.074.958.958 0 0 0 .285-.004c.012 0 .024 0 .035-.004.102-.012.2-.04.293-.074.024-.008.047-.02.067-.028.094-.039.183-.086.265-.144.079-.059.149-.13.211-.203.016-.016.032-.04.047-.059a1.67 1.67 0 0 0 .145-.223c0-.007.008-.015.011-.023.032-.066.06-.14.082-.219l8.086 2.41c.547.118.946.61.946 1.172v.399a1.742 1.742 0 0 0-.719.054c-.035.008-.07.024-.105.036-.07.027-.137.058-.204.093l-.093.059a1.424 1.424 0 0 0-.192.152c-.015.016-.035.024-.047.04-.007.003-.007.011-.015.015-.008.012-.016.016-.024.023v.004c-.043.047-.074.106-.11.157-.03.043-.065.082-.089.128a.085.085 0 0 1-.016.02c-.035.07-.058.148-.082.223-.015.039-.035.074-.043.113a1.59 1.59 0 0 0-.046.309c-.004.03-.012.058-.016.09v.011a2.25 2.25 0 0 0 .023.36c.004.015 0 .035.004.05.024.13.055.254.098.38.004.007.004.015.008.026a.865.865 0 0 0 .066.157c.024.054.043.11.07.16.012.023.02.043.028.062.027.047.058.094.086.137l.078.125c.02.031.035.059.055.082.074.102.156.195.222.266.008.012.032.035.04.047.03.03.066.058.097.09.016.011.031.027.043.039.078.07.152.132.234.187a.415.415 0 0 0 .043.035c.082.059.168.11.258.156a2.396 2.396 0 0 0 .348.16zm0 0"/>
</svg>
